src/bdd-kickstart.svg

<svg width="350" height="107" viewBox="0 0 350 107" xmlns="http://www.w3.org/2000/svg">
    <g fill="none" fill-rule="evenodd">
        <path d="M0 0h161v104H0z"/>
        <path d="M127.192 14.82c-9.05 0-16.375 7.324-16.375 16.375 0 7.968 5.712 14.589 13.25 16.062v4.688c9.8-1.478 18.478-9.257 19.125-19.47.39-6.146-2.675-12.42-7.844-15.468a13.755 13.755 0 0 0-.906-.5c-.315-.155-.64-.306-.969-.437-.104-.044-.207-.084-.312-.125-.288-.107-.578-.226-.875-.313a16.246 16.246 0 0 0-5.094-.812z" fill="#FF1245" fill-rule="nonzero"/>
        <path d="M130.567 20.882a1.787 1.787 0 0 0-1.562.625c-.3.4-.488.788-.688 1.188-.6 1.4-.4 2.9.5 4 1.4-.3 2.588-1.194 3.188-2.594.2-.4.312-.913.312-1.313.063-1.062-.816-1.81-1.75-1.906zm-7.281.094c-.913.087-1.781.812-1.781 1.812 0 .4.112.913.312 1.313.6 1.4 1.881 2.294 3.281 2.594.8-1.1 1.007-2.6.407-4-.2-.4-.388-.794-.688-1.094a1.757 1.757 0 0 0-1.531-.625zm-4.906 4.812c-1.577.081-2.282 2.063-.97 3.094.4.3.788.519 1.188.719 1.4.6 3.02.394 4.22-.406-.3-1.3-1.32-2.494-2.72-3.094-.5-.2-.906-.313-1.406-.313-.112-.012-.207-.005-.312 0zm15.406 6.063a4.574 4.574 0 0 0-2.594.75c.3 1.3 1.319 2.494 2.719 3.094.5.2.906.312 1.406.312 1.8.1 2.681-2.125 1.281-3.125-.4-.3-.787-.487-1.187-.687a4.32 4.32 0 0 0-1.625-.344zm-13.656.094c-.55.01-1.1.118-1.625.343-.5.2-.888.42-1.188.72-1.3 1.1-.425 3.193 1.375 3.093.5 0 1.006-.113 1.406-.313 1.4-.6 2.394-1.793 2.594-3.093a4.475 4.475 0 0 0-2.562-.75zm5.062 3.062c-1.4.3-2.587 1.194-3.187 2.594-.2.4-.313.881-.313 1.281-.1 1.7 2.219 2.613 3.219 1.313.3-.4.487-.788.687-1.188.6-1.3.394-2.8-.406-4zm3.719.094c-.8 1.1-1.006 2.6-.406 4 .2.4.387.794.687 1.094 1.1 1.2 3.413.312 3.313-1.188 0-.4-.113-.912-.313-1.312-.6-1.4-1.881-2.294-3.281-2.594z" fill="#FFF" fill-rule="nonzero"/>
        <text fill="#000" font-family="InsigniaLTStd, Insignia LT Std" font-size="50">
            <tspan x="20.72" y="76.5">bdd</tspan>
        </text>
        <text fill="#FF1245" font-family="InsigniaLTStd, Insignia LT Std" font-size="50">
            <tspan x="141.72" y="76.5">kickstart</tspan>
        </text>
        <text fill="#FF1245" font-family="Roboto-Regular, Roboto" font-size="5.7">
            <tspan x="138.9" y="18.98">®</tspan>
        </text>
    </g>
</svg>

<?xml version="1.0" encoding="UTF-8"?>
<svg width="306px" height="64px" viewBox="0 0 306 64" version="1.1" xmlns="http://www.w3.org/2000/svg" xmlns:xlink="http://www.w3.org/1999/xlink">
    <!-- Generator: Sketch 46.2 (44496) - http://www.bohemiancoding.com/sketch -->
    <title>bdd-kickstart</title>
    <desc>Created with Sketch.</desc>
    <defs></defs>
    <g id="Page-1" stroke="none" stroke-width="1" fill="none" fill-rule="evenodd">
        <g id="bdd-kickstart" transform="translate(-23.000000, -14.000000)">
            <polygon id="Shape" points="0 0 161 0 161 104 0 104"></polygon>
            <path d="M110.817,31.195 C110.817,39.163 116.529,45.784 124.067,47.257 L124.067,51.945 C133.867,50.467 142.545,42.688 143.192,32.475 C143.582,26.329 140.517,20.055 135.348,17.007 C135.052378,16.8290283 134.750165,16.6622437 134.442,16.507 C134.127,16.352 133.802,16.201 133.473,16.07 C133.369,16.026 133.266,15.986 133.161,15.945 C132.873,15.838 132.583,15.719 132.286,15.632 C130.64208,15.091772 128.922408,14.8176508 127.192,14.82 C118.142,14.82 110.817,22.144 110.817,31.195 Z" id="Shape" fill="#CEF257" fill-rule="nonzero"></path>
            <path d="M130.567,20.882 C129.974695,20.8168793 129.388899,21.0512725 129.005,21.507 C128.705,21.907 128.517,22.295 128.317,22.695 C127.717,24.095 127.917,25.595 128.817,26.695 C130.217,26.395 131.405,25.501 132.005,24.101 C132.205,23.701 132.317,23.188 132.317,22.788 C132.38,21.726 131.501,20.978 130.567,20.882 L130.567,20.882 Z M123.286,20.976 C122.373,21.063 121.505,21.788 121.505,22.788 C121.505,23.188 121.617,23.701 121.817,24.101 C122.417,25.501 123.698,26.395 125.098,26.695 C125.898,25.595 126.105,24.095 125.505,22.695 C125.305,22.295 125.117,21.901 124.817,21.601 C124.44273,21.1505191 123.868604,20.9161437 123.286,20.976 L123.286,20.976 Z M118.38,25.788 C116.803,25.869 116.098,27.851 117.41,28.882 C117.81,29.182 118.198,29.401 118.598,29.601 C119.998,30.201 121.618,29.995 122.818,29.195 C122.518,27.895 121.498,26.701 120.098,26.101 C119.598,25.901 119.192,25.788 118.692,25.788 C118.58,25.776 118.485,25.783 118.38,25.788 L118.38,25.788 Z M133.786,31.851 C132.865561,31.8342613 131.96149,32.0956542 131.192,32.601 C131.492,33.901 132.511,35.095 133.911,35.695 C134.411,35.895 134.817,36.007 135.317,36.007 C137.117,36.107 137.998,33.882 136.598,32.882 C136.198,32.582 135.811,32.395 135.411,32.195 C134.896685,31.9762988 134.344819,31.8594731 133.786,31.851 L133.786,31.851 Z M120.13,31.945 C119.58,31.955 119.03,32.063 118.505,32.288 C118.005,32.488 117.617,32.708 117.317,33.008 C116.017,34.108 116.892,36.201 118.692,36.101 C119.192,36.101 119.698,35.988 120.098,35.788 C121.498,35.188 122.492,33.995 122.692,32.695 C121.934193,32.190167 121.040415,31.9285223 120.13,31.945 L120.13,31.945 Z M125.192,35.007 C123.792,35.307 122.605,36.201 122.005,37.601 C121.805,38.001 121.692,38.482 121.692,38.882 C121.592,40.582 123.911,41.495 124.911,40.195 C125.211,39.795 125.398,39.407 125.598,39.007 C126.198,37.707 125.992,36.207 125.192,35.007 L125.192,35.007 Z M128.911,35.101 C128.111,36.201 127.905,37.701 128.505,39.101 C128.705,39.501 128.892,39.895 129.192,40.195 C130.292,41.395 132.605,40.507 132.505,39.007 C132.505,38.607 132.392,38.095 132.192,37.695 C131.592,36.295 130.311,35.401 128.911,35.101 Z" id="Shape" fill="#FFFFFF" fill-rule="nonzero"></path>
            <text id="bdd" fill="#000000" font-family="InsigniaLTStd, Insignia LT Std" font-size="50" font-weight="normal">
                <tspan x="20.72" y="76.5">bdd</tspan>
            </text>
            <text id="kickstart" fill="#CEF257" font-family="InsigniaLTStd, Insignia LT Std" font-size="50" font-weight="normal">
                <tspan x="141.72" y="76.5">kickstart</tspan>
            </text>
            <text id="®" fill="#CEF257" font-family="Roboto-Regular, Roboto" font-size="5.7" font-weight="normal">
                <tspan x="138.9" y="18.98">®</tspan>
            </text>
        </g>
    </g>
</svg>
